X:89
T:Fleur de mandragore
C:Michel Bordeleau
Z:robin.beech@mcgill.ca
S:Alexie Chartrand
R:reel
M:4/4
L:1/8
K:A
EGAG EAB2 | Aced cAA2 | EGAG EAB2 | BABd cAA2 |
EGAG EAB2 | Aced cAA2 | EGAG EAB2 | BABd cAAA :| Aceg |:
a3a a2ga | b2a2g2ec | dged cABc | defg agfe |
a3a a2ga | b2a2 g2ec | dged cABc | dcBc BAA2 :|
